X:13
T:Copenhagen Waltz. JBs.O13
S:Jas.Blackshaw MS, 1837, N.Shropshire
Z:T.Weatherall 2006
M:3/8
L:1/16
Q:3/8=50
A:North Shropshire
R:Waltz
K:D
fa|gb fa eg|df A2 df|eg A2 ce|df A2 fa|!
gb fa eg|fa A2 fa|eg A2 ce|d4z||!
df|eg A2 eg|df A2 df|eg A2 ce|df A2 fa|!
gb fa eg|df A2 df|eg A2 ce|d4||!
â€œcr in MS.â€a2|b2a2f2 d4a2|b2a2f2 e4 a2|b2a2g2 dcdfaf|edefgc|d4|]

